html/build/assets/img/icons/linked.svg

<svg width="18" height="17" viewBox="0 0 18 17" fill="none" xmlns="http://www.w3.org/2000/svg">
<path fill-rule="evenodd" clip-rule="evenodd" d="M5.04597 2.60055C5.04597 3.64662 4.25857 4.48365 2.99426 4.48365H2.97108C1.75377 4.48365 0.966797 3.64662 0.966797 2.60055C0.966797 1.53235 1.77774 0.71875 3.01815 0.71875C4.25857 0.71875 5.02244 1.53235 5.04597 2.60055ZM4.80716 5.97062V16.8651H1.18121V5.97062H4.80716ZM17.8833 16.8651L17.8835 10.6186C17.8835 7.27227 16.0947 5.71484 13.7087 5.71484C11.7835 5.71484 10.9216 6.77227 10.4403 7.51407V5.97096H6.81396C6.86176 6.99324 6.81396 16.8654 6.81396 16.8654H10.4403V10.7811C10.4403 10.4555 10.4639 10.1307 10.5598 9.89753C10.8218 9.24706 11.4185 8.57359 12.4202 8.57359C13.7328 8.57359 14.2575 9.57259 14.2575 11.0366V16.8651H17.8833Z" fill="white"/>
</svg>

<svg width="18" height="17" fill="none" xmlns="http://www.w3.org/2000/svg"><path fill-rule="evenodd" clip-rule="evenodd" d="M5.046 2.6c0 1.047-.787 1.884-2.052 1.884h-.023C1.754 4.484.967 3.647.967 2.6c0-1.069.81-1.882 2.051-1.882 1.24 0 2.004.813 2.028 1.882zm-.239 3.37v10.895H1.181V5.971h3.626zm13.076 10.895V10.62c0-3.347-1.788-4.904-4.174-4.904-1.925 0-2.787 1.057-3.269 1.8V5.97H6.814c.048 1.022 0 10.894 0 10.894h3.626V10.78c0-.325.024-.65.12-.883.262-.65.858-1.324 1.86-1.324 1.313 0 1.838.999 1.838 2.463v5.828h3.625z" fill="#fff"/></svg>
